X: 7506
T: Coast Of Cantabria, The
R: reel
M: 4/4
K: Gmajor
|:DGGG EGDE|GGGB AGED|EAAA cBAG|ABBB AGEG|
DGGG EGDE|GGGB AGAB|cBAG B3 B|AGED G3 E:|
|:dBBB cBAG|B3 B AGEG|deee dBGB|cBAG Aedc|
B3 A GAED|GBBB dBAB|cBAG B3 B|AGED G4:|

